X:188A
T:Balloon 
O:No 188A William Clarke of Feltwell
M:6/8
L:1/8
K:F
N: Querys is it spread over two pages? 
N:Possibly three separate tunes 
N:Page 92  188A ( Balloon), 188B Quadrill, Waltz 188C on Page 93 
N:Note values changed. B Repeat written out in full
N:
N:
A/B/|cdc b2g| gfd c2d| cdc cAF| EGG G2 (A/B/)|
cdc a2g| gfd c2 d| cdc EFG| GFF F2 :|
|f|e2 c gfe|f2c a2 f| b2g agf| egg g2 f|
e2 c gfe| f2c a2 f|age gfd| fec dcB|
e2c gfe|f2c a2 f| b2g agf| egg g2 f|
e2 c gfe| f2c a2 f|age gfd| fec dcB|
|:A2c f3|fef a2f| d2f c2 f|agg g3|
A2 c f3| fef a2 f| d2f c2 a| gfe f2z:||


